public/library/bullx-text-light.svg

<svg width="150" height="56" viewBox="0 0 150 56" fill="none" xmlns="http://www.w3.org/2000/svg"><g clip-path="url(#clip0_9330_100145)"><mask id="mask0_9330_100145" maskUnits="userSpaceOnUse" x="0" y="8" width="48" height="40" style="mask-type: luminance;"><path d="M48 8.29688H0V47.7086H48V8.29688Z" fill="white"></path></mask><g mask="url(#mask0_9330_100145)"><path d="M27.9551 28.5854L27.6663 30.5295L24.2741 28.5234L20.8818 30.5295L20.593 28.5854L24.2741 26.375L27.9551 28.5854Z" fill="#459C6E"></path><path d="M27.6524 39.2347L24.2748 40.3801L20.8971 39.2347L21.8914 37.3672L24.2748 38.3447L26.6581 37.3672L27.6524 39.2347Z" fill="#58C88D"></path><path d="M24.2752 26.3689L27.9562 28.583L36.4589 22.4587L34.7444 20.5547C32.5548 22.5353 29.5902 23.7026 26.6366 23.7828L24.2752 22.3201L21.9137 23.7828C18.9601 23.7026 15.9955 22.5353 13.8058 20.5547L12.0914 22.4587L20.5941 28.583L24.2752 26.3689Z" fill="#459C6E"></path><path d="M34.7426 20.5569C32.5494 22.5412 29.5884 23.7011 26.6348 23.785L24.2733 22.326L21.9119 23.785C18.9583 23.7011 15.9974 22.5412 13.8041 20.5569C14.9008 19.3386 16.0376 18.0766 17.1342 16.8583L20.3218 15.8516L24.2733 18.6529L28.2249 15.8516L31.4125 16.8583C32.5092 18.0766 33.646 19.3386 34.7426 20.5569Z" fill="#58C88D"></path><path d="M27.668 30.5296L26.6591 37.3687L24.2757 38.3463L21.8923 37.3687L20.8834 30.5296L24.2757 28.5234L27.668 30.5296Z" fill="#459C6E"></path><path d="M30.274 44.2169L27.7846 46.9744L24.2753 45.8911L20.7661 46.9744L18.2767 44.2169L20.8977 39.2344L24.2753 40.3797L27.653 39.2344L30.274 44.2169Z" fill="#295C41"></path><path d="M27.7853 46.9739L27.1346 47.7071H21.4175L20.7668 46.9739L24.2761 45.8906L27.7853 46.9739Z" fill="#58C88D"></path><path d="M18.9598 29.6083L13.8238 26.5078L12.782 29.3967L16.0719 33.5075L17.7132 41.284L19.965 37.1113L18.9598 29.6083Z" fill="#459C6E"></path><path d="M12.7836 29.3984L11.9062 31.8241L17.7148 41.2858L16.0735 33.5092L12.7836 29.3984Z" fill="#295C41"></path><path d="M29.5944 29.6083L34.7303 26.5078L35.7721 29.3967L32.4822 33.5075L30.8409 41.284L28.5891 37.1113L29.5944 29.6083Z" fill="#459C6E"></path><path d="M35.7727 29.3984L36.65 31.8241L30.8414 41.2858L32.4827 33.5092L35.7727 29.3984Z" fill="#295C41"></path><path d="M3.233 17.3975C3.32341 14.4175 8.85975 8.29688 8.85975 8.29688C6.45501 10.8648 3.72481 12.8746 1.71422 15.7743C1.15733 16.5768 0.806558 17.5872 0.983754 18.5319C1.32006 20.3119 2.82438 21.5265 5.32677 21.76C6.62857 21.8803 10.4943 21.7308 10.4943 21.7308L12.5446 19.4547C10.2412 19.6152 3.15707 19.8924 3.233 17.3975Z" fill="#295C41"></path><path d="M7.5299 16.2485C6.60777 15.7889 5.95322 14.8223 6.44867 13.2211C7.02725 11.3426 7.72518 9.9711 8.86061 8.29688C8.86061 8.29688 3.32429 14.4175 3.23388 17.3975C3.15794 19.8924 10.242 19.6152 12.5491 19.4583L14.9286 16.8175C11.7572 16.8175 9.72128 17.3465 7.5299 16.2485Z" fill="#58C88D"></path><path d="M45.3208 17.3975C45.2304 14.4175 39.694 8.29688 39.694 8.29688C42.0988 10.8648 44.829 12.8746 46.8396 15.7743C47.3965 16.5768 47.7473 17.5872 47.5701 18.5319C47.2337 20.3119 45.7294 21.5265 43.227 21.76C41.9252 21.8803 38.0595 21.7308 38.0595 21.7308L36.0092 19.4547C38.3127 19.6152 45.3967 19.8924 45.3208 17.3975Z" fill="#295C41"></path><path d="M41.0243 16.2485C41.9464 15.7889 42.6009 14.8223 42.1055 13.2211C41.5233 11.3426 40.8253 9.9711 39.6898 8.29688C39.6898 8.29688 45.2262 14.4175 45.3166 17.3975C45.3925 19.8924 38.3085 19.6152 36.0014 19.4583L33.6219 16.8175C36.7969 16.8175 38.8328 17.3465 41.0243 16.2485Z" fill="#58C88D"></path></g></g><path d="M68.1458 41H54.3058V14.2H67.5058C73.2258 14.2 76.3058 16.24 76.3058 20.88C76.3058 24.08 74.5058 26.16 70.9458 26.6V27C75.2658 27.32 77.3858 30.04 77.3858 33.64C77.3858 38.16 74.2658 41 68.1458 41ZM60.3058 19.6V24.8H67.1058C69.3458 24.8 70.3058 24.32 70.3058 22.2C70.3058 20.04 69.3058 19.6 67.1058 19.6H60.3058ZM60.3058 29.68V35.6H67.9458C70.1458 35.6 71.3458 35.2 71.3458 32.68C71.3458 30.08 70.1858 29.68 67.9458 29.68H60.3058ZM87.7195 41.4C82.4395 41.4 80.2395 37.92 80.2395 33.64V20.88H86.1995V32.44C86.1995 35.24 87.1595 36.24 90.1595 36.24C93.0395 36.24 94.2795 35.32 94.2795 32.28V20.88H100.24V41H94.6795V37.48H94.4795C93.3595 39.8 91.2395 41.4 87.7195 41.4ZM109.874 41H103.914V14.2H109.874V41ZM119.64 41H113.68V14.2H119.64V41Z" fill="black"></path><path d="M129.408 41H122.408L130.688 27.76V27.36L122.408 14.2H129.488L135.448 23.72H135.848L141.648 14.2H148.648L140.408 27.32V27.72L148.648 41H141.568L135.608 31.44H135.208L129.408 41Z" fill="url(#paint0_linear_9330_100145)"></path><defs><linearGradient id="paint0_linear_9330_100145" x1="101" y1="0" x2="101" y2="56" gradientUnits="userSpaceOnUse"><stop stop-color="#52BA84"></stop><stop offset="1" stop-color="#3F8A62"></stop></linearGradient><clipPath id="clip0_9330_100145"><rect width="48" height="40" fill="white" transform="translate(0 8)"></rect></clipPath></defs></svg>

<svg xmlns="http://www.w3.org/2000/svg" width="150" height="56" fill="none" viewBox="0 0 150 56"><g clip-path="url(#a)"><mask id="b" width="48" height="40" x="0" y="8" maskUnits="userSpaceOnUse" style="mask-type:luminance"><path fill="#fff" d="M48 8.297H0v39.412h48z"/></mask><g mask="url(#b)"><path fill="#459c6e" d="m27.955 28.585-.289 1.944-3.392-2.006-3.392 2.006-.289-1.944 3.681-2.21z"/><path fill="#58c88d" d="m27.652 39.235-3.377 1.145-3.378-1.145.994-1.868 2.384.978 2.383-.978z"/><path fill="#459c6e" d="m24.275 26.369 3.681 2.214 8.503-6.124-1.715-1.904c-2.19 1.98-5.154 3.148-8.107 3.228l-2.362-1.463-2.361 1.463c-2.954-.08-5.919-1.248-8.108-3.228l-1.715 1.904 8.503 6.124z"/><path fill="#58c88d" d="M34.743 20.557c-2.194 1.984-5.155 3.144-8.108 3.228l-2.362-1.459-2.361 1.459c-2.954-.084-5.915-1.244-8.108-3.228 1.097-1.218 2.234-2.48 3.33-3.699l3.188-1.006 3.951 2.8 3.952-2.8 3.188 1.006c1.096 1.219 2.233 2.48 3.33 3.699"/><path fill="#459c6e" d="m27.668 30.53-1.009 6.839-2.383.977-2.384-.977-1.009-6.84 3.393-2.006z"/><path fill="#295c41" d="m30.274 44.217-2.49 2.757-3.509-1.083-3.509 1.083-2.49-2.757 2.622-4.983 3.377 1.146 3.378-1.146z"/><path fill="#58c88d" d="m27.785 46.974-.65.733h-5.718l-.65-.733 3.51-1.083z"/><path fill="#459c6e" d="m18.96 29.608-5.136-3.1-1.042 2.889 3.29 4.11 1.641 7.777 2.252-4.173z"/><path fill="#295c41" d="m12.784 29.398-.878 2.426 5.809 9.462-1.642-7.777z"/><path fill="#459c6e" d="m29.594 29.608 5.136-3.1 1.042 2.889-3.29 4.11-1.641 7.777-2.252-4.173z"/><path fill="#295c41" d="m35.773 29.398.877 2.426-5.809 9.462 1.642-7.777zM3.233 17.398c.09-2.98 5.627-9.101 5.627-9.101-2.405 2.568-5.135 4.578-7.146 7.477-.557.803-.907 1.813-.73 2.758.336 1.78 1.84 2.994 4.343 3.228 1.302.12 5.167-.03 5.167-.03l2.05-2.275c-2.303.16-9.387.437-9.311-2.057"/><path fill="#58c88d" d="M7.53 16.249c-.922-.46-1.577-1.427-1.081-3.028.578-1.878 1.276-3.25 2.412-4.924 0 0-5.537 6.12-5.627 9.1-.076 2.495 7.008 2.218 9.315 2.061l2.38-2.64c-3.172 0-5.208.528-7.4-.57"/><path fill="#295c41" d="M45.32 17.398c-.09-2.98-5.626-9.101-5.626-9.101 2.405 2.568 5.135 4.578 7.146 7.477.556.803.907 1.813.73 2.758-.336 1.78-1.84 2.994-4.343 3.228-1.302.12-5.167-.03-5.167-.03l-2.05-2.275c2.303.16 9.387.437 9.31-2.057"/><path fill="#58c88d" d="M41.024 16.249c.922-.46 1.577-1.427 1.081-3.028-.582-1.878-1.28-3.25-2.415-4.924 0 0 5.536 6.12 5.627 9.1.075 2.495-7.008 2.218-9.316 2.061l-2.38-2.64c3.176 0 5.212.528 7.403-.57"/></g></g><path fill="#000" d="M68.146 41h-13.84V14.2h13.2c5.72 0 8.8 2.04 8.8 6.68 0 3.2-1.8 5.28-5.36 5.72v.4c4.32.32 6.44 3.04 6.44 6.64 0 4.52-3.12 7.36-9.24 7.36m-7.84-21.4v5.2h6.8c2.24 0 3.2-.48 3.2-2.6 0-2.16-1-2.6-3.2-2.6zm0 10.08v5.92h7.64c2.2 0 3.4-.4 3.4-2.92 0-2.6-1.16-3-3.4-3zM87.72 41.4c-5.28 0-7.48-3.48-7.48-7.76V20.88h5.96v11.56c0 2.8.96 3.8 3.96 3.8 2.88 0 4.12-.92 4.12-3.96v-11.4h5.96V41h-5.56v-3.52h-.2c-1.12 2.32-3.24 3.92-6.76 3.92m22.154-.4h-5.96V14.2h5.96zm9.766 0h-5.96V14.2h5.96z"/><path fill="url(#c)" d="M129.408 41h-7l8.28-13.24v-.4l-8.28-13.16h7.08l5.96 9.52h.4l5.8-9.52h7l-8.24 13.12v.4l8.24 13.28h-7.08l-5.96-9.56h-.4z"/><defs><linearGradient id="c" x1="101" x2="101" y1="0" y2="56" gradientUnits="userSpaceOnUse"><stop stop-color="#52ba84"/><stop offset="1" stop-color="#3f8a62"/></linearGradient><clipPath id="a"><path fill="#fff" d="M0 8h48v40H0z"/></clipPath></defs></svg>
